assets/icons/24px/stroke/activity-24px.svg

<svg width="24" height="24" viewBox="0 0 24 24" fill="none" xmlns="http://www.w3.org/2000/svg">
<path fill-rule="evenodd" clip-rule="evenodd" d="M9.0254 2.00033C9.46506 2.0115 9.84581 2.3086 9.96352 2.73236L14.087 17.5768L15.1562 14.3691C15.362 13.7517 15.5424 13.2104 15.7421 12.7811C15.958 12.3169 16.2362 11.8915 16.6874 11.5663C17.1386 11.2411 17.6301 11.1117 18.1388 11.0536C18.6093 10.9999 19.1797 11 19.8306 11L21 11C21.5523 11 22 11.4477 22 12C22 12.5523 21.5523 13 21 13H19.883C19.1643 13 18.7092 13.0015 18.3656 13.0407C18.0476 13.077 17.9294 13.1365 17.8568 13.1888C17.7842 13.2411 17.6905 13.3344 17.5555 13.6247C17.4096 13.9382 17.2643 14.3694 17.037 15.0513L14.9487 21.3162C14.8096 21.7335 14.4143 22.0108 13.9746 21.9997C13.5349 21.9885 13.1542 21.6914 13.0365 21.2676L8.91303 6.4232L7.84377 9.63097C7.63799 10.2484 7.45763 10.7896 7.25789 11.219C7.04196 11.6832 6.76382 12.1085 6.31264 12.4338C5.86146 12.759 5.36995 12.8883 4.86132 12.9464C4.39083 13.0001 3.82036 13.0001 3.16951 13.0001L3.00004 13.0001C2.44775 13.0001 2.00002 12.5524 2 12.0001C1.99998 11.4479 2.44768 11.0001 2.99996 11.0001L3.11704 11.0001C3.83577 11.0001 4.29084 10.9986 4.63439 10.9593C4.9524 10.923 5.07062 10.8636 5.14319 10.8113C5.21576 10.759 5.3095 10.6656 5.4445 10.3754C5.59036 10.0619 5.7357 9.63064 5.96298 8.94879L8.05132 2.68378C8.19039 2.26654 8.58574 1.98915 9.0254 2.00033Z" fill="white"/>
</svg>

<svg width="24" height="24" fill="none" xmlns="http://www.w3.org/2000/svg"><path fill-rule="evenodd" clip-rule="evenodd" d="M9.025 2a1 1 0 0 1 .939.732l4.123 14.845 1.07-3.208c.205-.617.385-1.159.585-1.588.216-.464.494-.89.945-1.215.452-.325.943-.454 1.452-.512.47-.054 1.04-.054 1.692-.054H21a1 1 0 1 1 0 2h-1.117c-.719 0-1.174.002-1.517.04-.318.037-.437.097-.51.149-.072.052-.166.145-.3.436-.146.313-.292.744-.519 1.426l-2.088 6.265a1 1 0 0 1-1.912-.048L8.913 6.423l-1.07 3.208c-.205.617-.385 1.159-.585 1.588-.216.464-.494.89-.945 1.215-.452.325-.943.454-1.452.512C4.391 13 3.821 13 3.17 13H3a1 1 0 0 1 0-2h.117c.719 0 1.174-.001 1.517-.04.318-.037.437-.096.51-.149.072-.052.165-.145.3-.436.146-.313.292-.744.519-1.426l2.088-6.265A1 1 0 0 1 9.025 2z" fill="#fff"/></svg>
